src/assets/icons/food-drink,simple,zap.svg

<svg width="48" height="48" viewBox="0 0 48 48" fill="none" xmlns="http://www.w3.org/2000/svg">
<rect opacity="0.2" x="5" y="5" width="38" height="38" rx="4" fill="black"/>
<path d="M12.1183 21.457L26.221 39.8317C26.5119 40.2107 27.1176 40.005 27.1176 39.5273V24.7418C27.1176 24.3872 27.4765 24.1453 27.8052 24.2783L35.2975 27.3109C35.7697 27.502 36.1919 26.9471 35.8817 26.543L21.779 8.16825C21.4881 7.7893 20.8824 7.99498 20.8824 8.47268V23.2582C20.8824 23.6128 20.5235 23.8547 20.1948 23.7217L12.7025 20.6891C12.2303 20.498 11.8081 21.0529 12.1183 21.457Z" fill="black"/>
</svg>

<svg xmlns="http://www.w3.org/2000/svg" width="48" height="48" fill="none" viewBox="0 0 48 48">
  <rect width="38" height="38" x="5" y="5" fill="#000" opacity=".2" rx="4"/>
  <path fill="#000" d="M12.118 21.457l14.103 18.375a.5.5 0 00.897-.305V24.742a.5.5 0 01.687-.464l7.492 3.033c.473.191.895-.364.585-.768L21.779 8.168a.5.5 0 00-.897.305v14.785a.5.5 0 01-.687.464l-7.492-3.033c-.473-.191-.895.364-.585.768z"/>
</svg>
